!!!OTL@@DE: Freiheit
!!!COM: Groos, Carl
!!!ODT: 1818
!!!OMD: Langsam
!!!LYR: Schenkendorf, Max von
!!!LDT: <1813
!!!OCL: Erk, Ludwig
!!!GCO: Deutscher Liederschatz, Band 1
**kern	**kern	**kern
*staff3	*staff2	*staff1
*Ipiano	*Ipiano	*Ivox
=1-	=1-	=1-
*clefF4	*clefG2	*clefG2
*k[]	*k[]	*k[]
*C:	*C:	*C:
*met(C)	*met(C)	*met(C)
*M4/4	*M4/4	*M4/4
*MM72	*MM72	*MM72
4C\ 4E\	4c/ 4g/	4g/
4C\ 4G\	4c/ 4e/	4e/
4C\ 4G\	4e/ 4cc/	4cc\
*	*^	*
4E\ 4c\	4g\	4g/	4g/
*	*v	*v	*
=2	=2	=2
*^	*	*
2.c/	2F\	2f/ 2a/	2a/
.	4C\	4e/ 4g/	4g/
4ryy	4r	4r	4r
=3	=3	=3	=3
2c/	4C\	4g\ 4ee\	4ee\
.	4E\	4g/ 4cc/	4cc\
4d/	4D\	4f/ 4b/	4b\
4G/	4C\	(8e/ 8cc/L	(8cc\L
.	.	8g/) 8ee/J	8ee\J)
=4	=4	=4	=4
2.B/	2.GG\	2.g\ 2.dd\	2.dd\
*v	*v	*	*
4r	4r	4r
=5	=5	=5
*^	*	*
4c/	4C\	4e/ 4g/	4g/
4G/	4C\	4c/	4e/
4G/	4C\	4e/ 4cc/	4cc\
*	*	*^	*
4c/	4E\	4g\	4g/	4g/
*	*	*v	*v	*
=6	=6	=6	=6
2.c/	2F\	2f/ 2a/	2a/
.	4C\	4e/ 4g/	4g/
4ryy	4r	4r	4r
=7	=7	=7	=7
2c/	4C\	4g\ 4ee\	4ee\
.	4E\	4g/ 4cc/	4cc\
4d/	4D\	4f/ 4b/	4b\
4G/	4C\	(8e/ 8cc/L	(8cc\L
.	.	8g/) 8ee/J	8ee\J)
=8	=8	=8	=8
2.B/	2.GG\	2.g\ 2.dd\	2.dd\
*v	*v	*	*
4r	4r	4r
=9	=9	=9
*^	*	*
4.B/	4G\	4.f/ 4.dd/	4.dd\
.	4G\	.	.
8c/	.	8e/ 8cc/	8cc\
4d/	4G\	4d/ 4b/	4b\
*	*	*^	*
4B/	4G\	4g/	4f\	4g/
*	*	*v	*v	*
=10	=10	=10	=10
2.G/	(2C\	2e/ (2ee/	2ee\
.	4E\)	4g/ 4cc/)	4cc\
8B/L	8F\L	8g\ 8dd\L	8dd\
8c/J	8E\J	8g\ 8ee\J	8ee\
=11	=11	=11	=11
(4A/	2D\	2a\ 2ff\	2ff\
4B/)	.	.	.
2c/	(4E\	2g\ 2ee\	2ee\
.	4C\)	.	.
=12	=12	=12	=12
*	*	*^	*
2.B/	2.G\	2.dd/	2g\	2.dd\
.	.	.	4g\	.
4ryy	4r	4r	4f\	4r
*v	*v	*	*	*
*	*v	*v	*
=13	=13	=13
4C\ 4A\	4e/ 4ee/	4ee\
4G\ 4B\	4f/ 4dd/	4dd\
4A\ 4c\	4e/ 4cc/	4cc\
4E\ 4e\	4g/ 4b/	4b\
=14	=14	=14
4F\ 4c\	4f/ 4a/	4a/
4D\ 4d\	4f\ 4ff\	4ff\
*^	*	*
[4c/	4E\	4g\ 4ee\	4ee\
8c/L]	4F\	4a\ 4dd\	4dd\
8d/J	.	.	.
*v	*v	*	*
=15	=15	=15
2G\	2e/ 2g/ 2cc/	2cc\
2GG/	2d/ 2f/ 2b/	2b\
=16	=16	=16
2.C/	2.c/ 2.e/ 2.cc/	2.cc\
4r	4r	4r
==	==	==
*-	*-	*-
!!!ENC: Craig Stuart Sapp
!!!END: 2004/06/04/
!!!EFL: 135/651
